dist/img/icons/apple.svg

<svg width="17" height="16" viewBox="0 0 17 16" fill="none" xmlns="http://www.w3.org/2000/svg">
<path d="M9.10627 2.05311C10.0506 0.806067 11.3634 0.799988 11.3634 0.799988C11.3634 0.799988 11.5587 1.97242 10.6205 3.10185C9.61887 4.30782 8.48032 4.11049 8.48032 4.11049C8.48032 4.11049 8.26653 3.16203 9.10627 2.05311ZM8.60042 4.93177C9.08622 4.93177 9.98784 4.26269 11.1614 4.26269C13.1816 4.26269 13.9763 5.70293 13.9763 5.70293C13.9763 5.70293 12.4219 6.49916 12.4219 8.43119C12.4219 10.6107 14.3582 11.3618 14.3582 11.3618C14.3582 11.3618 13.0047 15.1788 11.1765 15.1788C10.3368 15.1788 9.68396 14.6119 8.79922 14.6119C7.8976 14.6119 7.00287 15.2 6.42013 15.2C4.75069 15.2 2.6416 11.5792 2.6416 8.6686C2.6416 5.805 4.4268 4.30281 6.10125 4.30281C7.18979 4.30281 8.03451 4.93177 8.60042 4.93177Z" fill="#0B002E"/>
</svg>

<svg width="17" height="16" viewBox="0 0 17 16" fill="none" xmlns="http://www.w3.org/2000/svg"><path d="M9.106 2.053C10.051.806 11.363.8 11.363.8s.196 1.172-.742 2.302C9.618 4.308 8.48 4.11 8.48 4.11s-.214-.948.625-2.057zM8.6 4.932c.486 0 1.388-.67 2.561-.67 2.02 0 2.815 1.44 2.815 1.44s-1.554.797-1.554 2.73c0 2.179 1.936 2.93 1.936 2.93s-1.353 3.817-3.181 3.817c-.84 0-1.493-.567-2.378-.567-.901 0-1.796.588-2.379.588-1.67 0-3.778-3.62-3.778-6.531 0-2.864 1.785-4.366 3.46-4.366 1.088 0 1.933.629 2.498.629z" fill="#0B002E"/></svg>
